coffeeroasters/images/icon-uk.svg

<svg width="42" height="50" viewBox="0 0 42 50" fill="none" xmlns="http://www.w3.org/2000/svg">
<path fill-rule="evenodd" clip-rule="evenodd" d="M6.1245 5.96991L6.12449 5.96991C6.08458 5.94778 6.04423 5.92541 6 5.89592H6.00833C6.01107 5.89136 6.0144 5.88651 6.01794 5.88135L6.01795 5.88134C6.02519 5.87078 6.03329 5.85898 6.03889 5.84592C6.05 5.84175 6.06181 5.83828 6.07361 5.83481L6.07363 5.8348C6.08543 5.83133 6.09723 5.82786 6.10833 5.8237C6.17363 5.87034 6.19632 5.91948 6.22018 5.97113C6.23184 5.99639 6.24378 6.02224 6.26111 6.0487C8.725 7.59592 10.1028 6.76536 11.0667 4.60703C11.2 4.29592 11.3278 3.95981 11.4528 3.60148C12.5912 0.257702 15.2696 0.217001 17.86 0.177637C18.689 0.16504 19.509 0.152579 20.2667 0.0320308C22.0944 -0.25408 21.5111 1.4487 20.7194 2.26814C20.4581 2.54211 20.151 2.77276 19.8329 3.01165C19.032 3.61322 18.1615 4.26696 17.7778 5.79592C18.5165 5.79592 19.2237 5.80054 19.9092 5.80502C21.4147 5.81486 22.8157 5.82402 24.2167 5.78203C26.8361 5.70425 27.2806 6.65703 25.8361 8.77647C25.5197 9.24365 25.2638 9.75426 25.0085 10.2638L25.0084 10.2638C24.6899 10.8995 24.3721 11.5334 23.9389 12.0793C22.425 13.9737 22.4583 15.2681 24.9417 16.1515C25.5667 16.3737 26.3722 16.9293 26.5306 17.4931C27.2843 20.1643 29.089 22.1715 30.8885 24.173L30.8885 24.173C32.8821 26.3904 34.8693 28.6006 35.4139 31.6987C35.4392 31.8413 35.4565 31.9733 35.4724 32.0942C35.559 32.7554 35.6022 33.0847 36.6778 32.9931C38.5111 32.8209 40.6806 32.7987 41.1917 35.1376C41.6833 37.3681 40.0917 38.7876 38.3889 39.9654C38.1569 40.1239 37.9801 40.3564 37.7826 40.616C37.6963 40.7295 37.6061 40.8482 37.5056 40.9681C37.6626 41.6535 38.2566 41.6716 38.8126 41.6887C39.3676 41.7057 39.8847 41.7215 39.8917 42.3987C39.9028 43.5265 38.6944 44.0515 37.8583 44.3098C33.5944 45.6348 29.1028 46.0848 24.7306 45.9959C22.3967 45.9444 20.3538 46.6903 18.3219 47.4322C16.8472 47.9707 15.3784 48.507 13.8083 48.7348C13.5784 48.7691 13.3527 48.8205 13.1225 48.8729C12.2904 49.0623 11.4006 49.2649 10.0472 48.7209C11.6521 48.138 12.7124 46.9564 13.7804 45.766C15.3743 43.9897 16.9854 42.194 20.45 42.3404C19.8435 42.0884 19.3564 41.8828 18.9472 41.7102L18.9443 41.709L18.9441 41.7089L18.944 41.7088L18.944 41.7088C18.1463 41.3723 17.6453 41.1609 17.1333 40.9737C14.8028 40.132 14.4917 38.4959 16.2306 36.6015C17.2111 35.5376 17.8889 34.3959 15.6667 33.9348C14.4451 33.6831 14.7366 33.1604 15.0598 32.5808C15.293 32.1628 15.5426 31.7151 15.2528 31.3181C14.8806 30.807 16.1028 30.6626 16.8083 30.7515C18.8972 31.0209 21.85 31.382 21.0389 28.3293C20.973 28.0825 20.9106 27.8046 20.844 27.5083L20.844 27.508L20.8439 27.5079C20.3829 25.4555 19.7238 22.5212 16.35 22.9654C12.6944 23.4459 11.5472 22.5404 13.8333 19.2237C13.3683 19.0156 12.725 19.256 12.1083 19.4864C10.9382 19.9235 9.8641 20.3247 10.2861 17.5598C10.3111 17.3848 9.96667 16.9654 9.89722 16.9848C9.63146 17.069 9.35989 17.3324 9.08993 17.5942C8.50492 18.1616 7.92751 18.7216 7.43333 17.4348C7.08073 16.5175 7.67745 16.2749 8.3779 15.9902C9.09005 15.7008 9.90941 15.3677 9.94722 14.2376C9.89209 14.0587 9.48085 14.0547 9.03817 14.0503C8.29882 14.0432 7.47175 14.0351 8.06944 13.2098C10.059 10.4647 8.53685 9.31108 6.8338 8.02036L6.83375 8.02032L6.83358 8.0202C6.65828 7.88733 6.48106 7.75302 6.30556 7.61536C6.07535 7.43611 6.15918 7.16585 6.24881 6.87686C6.29113 6.74041 6.33475 6.59978 6.34722 6.46259C6.34722 6.45842 6.34583 6.45286 6.34444 6.44731L6.34444 6.4473C6.34305 6.44175 6.34167 6.4362 6.34167 6.43203C6.35 6.30148 6.33611 6.16814 6.25556 6.0487C6.20956 6.01708 6.16729 5.99364 6.1245 5.96992L6.1245 5.96991ZM1.47792 26.1856C0.916807 26.094 0.277918 25.5051 0.339029 24.6579C0.461252 23.1023 5.20292 19.9329 7.30847 20.0579C9.24761 20.1646 9.87295 21.4824 10.4607 22.7212C10.6989 23.2232 10.931 23.7122 11.2418 24.1023C11.1501 25.9356 10.0418 26.9717 8.85014 26.9773C6.51014 27.0064 4.15248 26.6218 1.82283 26.2418L1.47792 26.1856ZM8.19181 0.8773C5.56681 1.5773 4.05292 2.97174 4.23903 5.79119C2.48065 5.96414 2.99071 6.67928 3.46081 7.33839C3.53432 7.44146 3.60686 7.54315 3.66958 7.64119C3.8053 7.33243 4.04152 7.04233 4.28521 6.74303L4.28522 6.74303C4.44055 6.55226 4.59892 6.35775 4.73625 6.1523C4.89045 6.1124 5.04507 6.07167 5.19979 6.03091C5.44361 5.96667 5.68768 5.90237 5.9307 5.84119C6.16748 5.31917 6.57456 4.87779 6.98746 4.4301C7.82913 3.51752 8.69497 2.57873 8.19181 0.8773ZM3.57514 8.42452C3.99736 8.2773 3.88347 7.98286 3.66681 7.64119C3.55847 7.88008 3.49459 8.13008 3.57514 8.42452Z" fill="#0E8784"/>
</svg>

<svg width="42" height="50" fill="none" xmlns="http://www.w3.org/2000/svg"><path fill-rule="evenodd" clip-rule="evenodd" d="M6.125 5.97c-.04-.022-.08-.045-.125-.074h.008l.01-.015c.007-.01.015-.022.02-.035l.036-.011.034-.011c.066.046.088.095.112.147a.576.576 0 0 0 .041.078c2.464 1.547 3.842.716 4.806-1.442.133-.311.26-.647.386-1.006C12.59.258 15.27.217 17.86.178c.829-.013 1.649-.025 2.407-.146 1.827-.286 1.244 1.417.452 2.236-.26.274-.568.505-.886.744-.801.601-1.671 1.255-2.055 2.784.739 0 1.446.005 2.131.009 1.506.01 2.907.019 4.308-.023 2.62-.078 3.064.875 1.62 2.994-.317.468-.573.978-.828 1.488-.32.636-.637 1.27-1.07 1.815-1.514 1.895-1.48 3.19 1.003 4.072.625.223 1.43.778 1.589 1.342.753 2.671 2.558 4.679 4.358 6.68 1.993 2.217 3.98 4.428 4.525 7.526.025.142.042.274.058.395.087.661.13.99 1.206.9 1.833-.173 4.003-.195 4.514 2.144.491 2.23-1.1 3.65-2.803 4.827-.232.159-.409.391-.606.651-.087.114-.177.232-.277.352.157.685.75.704 1.307.72.555.018 1.072.033 1.079.71.01 1.128-1.198 1.653-2.034 1.912-4.264 1.325-8.755 1.775-13.127 1.686-2.334-.052-4.377.694-6.41 1.436-1.474.539-2.943 1.075-4.513 1.303-.23.034-.455.086-.685.138-.833.19-1.722.392-3.076-.152 1.605-.583 2.665-1.765 3.733-2.955 1.594-1.776 3.205-3.572 6.67-3.426-.607-.252-1.094-.457-1.503-.63l-.003-.001c-.798-.337-1.299-.548-1.81-.735-2.331-.842-2.642-2.478-.903-4.372.98-1.064 1.658-2.206-.564-2.667-1.222-.252-.93-.775-.607-1.354.233-.418.483-.866.193-1.263-.372-.511.85-.655 1.555-.567 2.09.27 5.042.631 4.23-2.422-.065-.247-.127-.524-.194-.82v-.001c-.461-2.052-1.12-4.987-4.494-4.543-3.656.48-4.803-.425-2.517-3.741-.465-.208-1.108.032-1.725.262-1.17.438-2.244.839-1.822-1.926.025-.175-.32-.595-.389-.575-.266.084-.537.347-.807.61-.585.567-1.162 1.127-1.657-.16-.352-.918.244-1.16.945-1.445.712-.29 1.531-.622 1.57-1.752-.056-.18-.467-.183-.91-.188-.74-.007-1.566-.015-.969-.84 1.99-2.745.468-3.899-1.235-5.19-.176-.133-.353-.267-.528-.405-.23-.179-.147-.45-.057-.738.042-.137.086-.277.098-.414a.072.072 0 0 0-.003-.016.071.071 0 0 1-.002-.015.594.594 0 0 0-.086-.383 1.522 1.522 0 0 0-.131-.08zM1.478 26.186c-.561-.092-1.2-.68-1.139-1.528.122-1.556 4.864-4.725 6.97-4.6 1.939.107 2.564 1.424 3.152 2.663.238.502.47.991.78 1.381-.09 1.834-1.2 2.87-2.39 2.875-2.34.03-4.699-.355-7.028-.735l-.345-.056zM8.192.877c-2.625.7-4.14 2.095-3.953 4.914-1.758.173-1.248.888-.778 1.547.073.103.146.205.209.303.135-.309.372-.599.615-.898.156-.19.314-.385.451-.59L5.2 6.03c.244-.064.488-.129.73-.19.237-.522.645-.963 1.057-1.41.842-.913 1.708-1.852 1.205-3.554zM3.575 8.425c.422-.148.308-.442.092-.784-.109.24-.172.49-.092.784z" fill="#0E8784"/></svg>
